X:45
T: Frog in the Puddle
S: B.Breathnach:"Ceol Rince na hEireann" IV/9 (gan ainm)
Z: B.Black
N: No repeats
L: 1/8
M: 6/8
R: jig
K: G
D|G3 BAG|Bdg dBG|DGG BAG|EAA AFD|
DGG BAG|BAG dBG|c2A BGE|E2F G2 ||
f|gfg efg|fdB B2f|gfg efg|afd def|
gfe agf|gfe dcB|cBA BGE|GAG G2 ||
